src/assets/outline/RouteSquare.svg

<svg width="24" height="24" viewBox="0 0 24 24"  xmlns="http://www.w3.org/2000/svg">
<path d="M13.1802 18.6999C12.0102 18.6999 11.0202 17.9799 10.6502 16.8699L9.95023 14.7999C9.84023 14.4399 9.56023 14.1699 9.22023 14.0599L7.14023 13.3599C6.02023 12.9799 5.30023 11.9699 5.32023 10.7899C5.34023 9.60992 6.08023 8.61994 7.21023 8.26994L14.7402 5.92992C15.6902 5.63992 16.7202 5.88994 17.4202 6.59994C18.1202 7.30994 18.3702 8.32993 18.0802 9.27993L15.7402 16.8199C15.3902 17.9499 14.4002 18.6899 13.2102 18.7099C13.2002 18.6999 13.1902 18.6999 13.1802 18.6999ZM15.5202 7.29993C15.4002 7.29993 15.2902 7.31994 15.1702 7.34994L7.63023 9.69993C7.02023 9.88993 6.80023 10.3899 6.80023 10.8099C6.79023 11.2199 7.00023 11.7399 7.60023 11.9399L9.68023 12.6299C10.4802 12.8899 11.1102 13.5199 11.3702 14.3299L12.0602 16.3899C12.2602 16.9899 12.7302 17.1799 13.1902 17.1999C13.6002 17.1999 14.1102 16.9799 14.3002 16.3699L16.6402 8.82993C16.7702 8.40993 16.6602 7.96993 16.3502 7.65993C16.1202 7.41993 15.8302 7.29993 15.5202 7.29993Z" />
<path d="M15 22.75H9C3.57 22.75 1.25 20.43 1.25 15V9C1.25 3.57 3.57 1.25 9 1.25H15C20.43 1.25 22.75 3.57 22.75 9V15C22.75 20.43 20.43 22.75 15 22.75ZM9 2.75C4.39 2.75 2.75 4.39 2.75 9V15C2.75 19.61 4.39 21.25 9 21.25H15C19.61 21.25 21.25 19.61 21.25 15V9C21.25 4.39 19.61 2.75 15 2.75H9Z" />
</svg>

<?xml version="1.0" encoding="UTF-8"?>
<svg width="24" height="24" viewBox="0 0 24 24" xmlns="http://www.w3.org/2000/svg">
 <path d="m13.18 18.7c-1.17 0-2.16-0.72-2.53-1.83l-0.69997-2.07c-0.11-0.36-0.39-0.63-0.73-0.74l-2.08-0.7c-1.12-0.38-1.84-1.39-1.82-2.57 0.02-1.18 0.76-2.17 1.89-2.52l7.53-2.34c0.95-0.29 1.98-0.03998 2.68 0.67002s0.95 1.73 0.66 2.68l-2.34 7.54c-0.35 1.13-1.34 1.87-2.53 1.89-0.01-0.01-0.02-0.01-0.03-0.01zm2.34-11.4c-0.12 0-0.23 0.02001-0.35 0.05001l-7.54 2.35c-0.61 0.19-0.83 0.68997-0.83 1.11-0.01 0.41 0.2 0.93 0.8 1.13l2.08 0.69c0.79997 0.26 1.43 0.89 1.69 1.7l0.69 2.06c0.2 0.6 0.67 0.79 1.13 0.81 0.41 0 0.92-0.22 1.11-0.83l2.34-7.54c0.13-0.42 0.02-0.86-0.29-1.17-0.23-0.24-0.52-0.36-0.83-0.36z"/>
 <path d="m15 22.75h-6c-5.43 0-7.75-2.32-7.75-7.75v-6c0-5.43 2.32-7.75 7.75-7.75h6c5.43 0 7.75 2.32 7.75 7.75v6c0 5.43-2.32 7.75-7.75 7.75zm-6-20c-4.61 0-6.25 1.64-6.25 6.25v6c0 4.61 1.64 6.25 6.25 6.25h6c4.61 0 6.25-1.64 6.25-6.25v-6c0-4.61-1.64-6.25-6.25-6.25h-6z"/>
</svg>
